X:492
T: Ehlicher Dialog (198), S. 433
N: T0380
O: Luxemburg
S: Singendes Volk, Esch-Alzette, 1937 posth.]
N: Burglinster, hhh Eugen Lemmer (Lehrer), 1916
R: Hochzeits-, Ehestandslied]
M: 2/4
L: 1/16
K: G
 | D2G2G2G2 | F2A2D2D2
D2F2A2c2 | B2d2G4
D2G2G2G2 | F2A2D2D2
D2F2A2c2 | B2d2G4
A6B2 | A2G2F2E2 | D4z4
A6GG | F2E2D2C2 | B,2D2B4
G6B2 | d2d2B2B2 | A4z4
c6cc | e2e2d2F2 | G4z4

